X: 35708
T: Saint Catherine
R: reel
M: 4/4
K: Gmajor
|:de|d2 G2 G2 A2|B6 AB|cdcB ABAG|FG A2 A2 de|
d2 G2 G2 A2|B6 AB|cBAG FGAF|G6:|
AB|A2 D2 D2 E2|F6 AB|A2 D2 G2 A2|B6 Bc|
B2 B2 e2 B2|c6 cB|ABAG FGAF|G2 E4 Bc|
B2 B2 e2 B2|c6 cB|A2 A2 d2 A2|B6 de|
d2 d2 g2 d2|edcB A2 d2|edcB cBAF|G6||

